/* XPM */
static char * wall_pixelised_backroom_xpm[] = {
"64 64 699 2",
"  	c #96893A",
". 	c #A79D4B",
"+ 	c #ADA252",
"@ 	c #ADA251",
"# 	c #A69C4A",
"$ 	c #988C3D",
"% 	c #A09544",
"& 	c #9F9343",
"* 	c #9A8E3C",
"= 	c #A49949",
"- 	c #ADA254",
"; 	c #AEA354",
"> 	c #A89D4B",
", 	c #998C3D",
"' 	c #9F9344",
") 	c #A09444",
"! 	c #9C903E",
"~ 	c #A59A4A",
"{ 	c #ABA053",
"] 	c #A39849",
"^ 	c #988B3F",
"/ 	c #A09646",
"( 	c #9D9244",
"_ 	c #9B8F3F",
": 	c #A29748",
"< 	c #ACA151",
"[ 	c #AA9F4F",
"} 	c #A39948",
"| 	c #998D3C",
"1 	c #A19645",
"2 	c #9E9341",
"3 	c #A69B4B",
"4 	c #ACA153",
"5 	c #A49A48",
"6 	c #9B8F40",
"7 	c #9E9343",
"8 	c #A29646",
"9 	c #998C3C",
"0 	c #A69A4A",
"a 	c #ABA052",
"b 	c #9A8F40",
"c 	c #978A3D",
"d 	c #9E9241",
"e 	c #9E9144",
"f 	c #9B903E",
"g 	c #A39848",
"h 	c #ABA050",
"i 	c #AA9F50",
"j 	c #9B9041",
"k 	c #9A8C3E",
"l 	c #9D9343",
"m 	c #9D9240",
"n 	c #9F9244",
"o 	c #A89B4E",
"p 	c #A89C50",
"q 	c #A19646",
"r 	c #9A8D40",
"s 	c #9A8E3D",
"t 	c #A19545",
"u 	c #998D3A",
"v 	c #A89D4C",
"w 	c #ADA253",
"x 	c #A99E4F",
"y 	c #9A8E39",
"z 	c #968B35",
"A 	c #9A8F3C",
"B 	c #A4994A",
"C 	c #ADA255",
"D 	c #A69C4B",
"E 	c #9E9340",
"F 	c #9D923E",
"G 	c #978C37",
"H 	c #A79C4B",
"I 	c #ACA152",
"J 	c #AA9F51",
"K 	c #A5994B",
"L 	c #9D9241",
"M 	c #998E3B",
"N 	c #978C39",
"O 	c #9A8F3E",
"P 	c #A69C4D",
"Q 	c #AB9F53",
"R 	c #A59A4B",
"S 	c #9B903A",
"T 	c #A89D4E",
"U 	c #ACA254",
"V 	c #AB9F52",
"W 	c #A69A4B",
"X 	c #9D9140",
"Y 	c #988C38",
"Z 	c #ACA155",
"` 	c #A99F52",
" .	c #A5994C",
"..	c #9B8F3D",
"+.	c #9B903D",
"@.	c #978B37",
"#.	c #988D3A",
"$.	c #A99D4F",
"%.	c #AA9E52",
"&.	c #A09547",
"*.	c #948936",
"=.	c #948935",
"-.	c #9E9441",
";.	c #A99D50",
">.	c #A99C50",
",.	c #978B38",
"'.	c #90832E",
").	c #A99F4F",
"!.	c #AEA455",
"~.	c #A89E4E",
"{.	c #A19643",
"].	c #9D913E",
"^.	c #A09543",
"/.	c #9A903B",
"(.	c #A79C4D",
"_.	c #9F9442",
":.	c #A79D4C",
"<.	c #A89D4D",
"[.	c #9A8F3D",
"}.	c #9F9544",
"|.	c #A89E4F",
"1.	c #AEA456",
"2.	c #ADA356",
"3.	c #9D933E",
"4.	c #9D923F",
"5.	c #A09644",
"6.	c #AFA455",
"7.	c #9F9441",
"8.	c #9C913C",
"9.	c #A79D4D",
"0.	c #ACA154",
"a.	c #ABA153",
"b.	c #A59B4D",
"c.	c #9C923F",
"d.	c #9F9543",
"e.	c #9B903C",
"f.	c #A19647",
"g.	c #998F3C",
"h.	c #9D9242",
"i.	c #9C9240",
"j.	c #A79C4E",
"k.	c #A89C51",
"l.	c #9B8F3E",
"m.	c #9A8E3A",
"n.	c #A59A49",
"o.	c #A79E4E",
"p.	c #ADA457",
"q.	c #ADA456",
"r.	c #A39846",
"s.	c #A29645",
"t.	c #AA9E50",
"u.	c #A99E51",
"v.	c #A49947",
"w.	c #A19747",
"x.	c #ADA354",
"y.	c #AFA657",
"z.	c #A89E4D",
"A.	c #9F9545",
"B.	c #A29847",
"C.	c #AAA04F",
"D.	c #ACA252",
"E.	c #ADA355",
"F.	c #A89F4E",
"G.	c #A29844",
"H.	c #A39946",
"I.	c #A39944",
"J.	c #A69B48",
"K.	c #A39947",
"L.	c #A09545",
"M.	c #A49A49",
"N.	c #A19742",
"O.	c #A69C4C",
"P.	c #AFA557",
"Q.	c #A29848",
"R.	c #A29846",
"S.	c #A09643",
"T.	c #A19844",
"U.	c #A99E4E",
"V.	c #A39949",
"W.	c #9F9542",
"X.	c #9E9442",
"Y.	c #AAA052",
"Z.	c #A99E53",
"`.	c #ACA156",
" +	c #A19543",
".+	c #A29744",
"++	c #A9A050",
"@+	c #AFA556",
"#+	c #ABA152",
"$+	c #A29845",
"%+	c #AAA050",
"&+	c #AFA554",
"*+	c #AA9F4D",
"=+	c #B0A757",
"-+	c #A69B49",
";+	c #ACA251",
">+	c #9F953F",
",+	c #ABA051",
"'+	c #B0A654",
")+	c #B1A656",
"!+	c #AFA658",
"~+	c #A79D4E",
"{+	c #A19743",
"]+	c #AAA151",
"^+	c #AEA355",
"/+	c #A39847",
"(+	c #AEA453",
"_+	c #A89E4B",
":+	c #A29944",
"<+	c #A59C48",
"[+	c #B0A656",
"}+	c #ACA052",
"|+	c #B0A557",
"1+	c #A99E4D",
"2+	c #A69C49",
"3+	c #A79C4C",
"4+	c #A59B49",
"5+	c #A59A48",
"6+	c #B0A556",
"7+	c #B0A657",
"8+	c #A89E4C",
"9+	c #A69B4A",
"0+	c #AAA04D",
"a+	c #A99F4E",
"b+	c #ACA353",
"c+	c #A59B47",
"d+	c #B0A758",
"e+	c #AEA454",
"f+	c #AEA353",
"g+	c #ADA353",
"h+	c #ACA050",
"i+	c #A69D4B",
"j+	c #A59A47",
"k+	c #AA9F52",
"l+	c #A49A47",
"m+	c #A99F4D",
"n+	c #A89F4D",
"o+	c #B1A657",
"p+	c #ABA14F",
"q+	c #A59B4A",
"r+	c #A99E4C",
"s+	c #AAA051",
"t+	c #AFA555",
"u+	c #A79E4C",
"v+	c #AAA150",
"w+	c #A79E4B",
"x+	c #ACA253",
"y+	c #A59B48",
"z+	c #A59B4B",
"A+	c #AFA558",
"B+	c #AFA458",
"C+	c #A19746",
"D+	c #A39844",
"E+	c #9C933C",
"F+	c #9E953D",
"G+	c #A49A46",
"H+	c #B0A558",
"I+	c #9D933D",
"J+	c #A19741",
"K+	c #A49B47",
"L+	c #A89F4C",
"M+	c #B1A759",
"N+	c #B2A859",
"O+	c #A79D4A",
"P+	c #A19642",
"Q+	c #B2A95A",
"R+	c #A29746",
"S+	c #A09642",
"T+	c #9E933E",
"U+	c #B0A658",
"V+	c #A09541",
"W+	c #B0A659",
"X+	c #B2A75A",
"Y+	c #A0963F",
"Z+	c #ABA150",
"`+	c #B2A858",
" @	c #A39A46",
".@	c #A29743",
"+@	c #9D923C",
"@@	c #ABA151",
"#@	c #B1A758",
"$@	c #A59C4A",
"%@	c #9A903E",
"&@	c #9A8F37",
"*@	c #9D923D",
"=@	c #A59B46",
"-@	c #ADA351",
";@	c #A29842",
">@	c #A89F4F",
",@	c #A29843",
"'@	c #ABA04E",
")@	c #B3A95A",
"!@	c #B3A95B",
"~@	c #B1A858",
"{@	c #A49A4A",
"]@	c #ADA352",
"^@	c #B3A95C",
"/@	c #9F9541",
"(@	c #A49B4A",
"_@	c #B3A959",
":@	c #9D9340",
"<@	c #A69D4A",
"[@	c #A39945",
"}@	c #ABA251",
"|@	c #9E943F",
"1@	c #A09645",
"2@	c #A09641",
"3@	c #B3A858",
"4@	c #A9A04F",
"5@	c #AA9F4C",
"6@	c #A79E4D",
"7@	c #A69D4C",
"8@	c #B4AA5D",
"9@	c #B3AA5C",
"0@	c #B4AB5D",
"a@	c #B6AC5E",
"b@	c #A59C49",
"c@	c #B5AA5D",
"d@	c #B4AA5B",
"e@	c #A79D49",
"f@	c #ADA350",
"g@	c #B4AA5C",
"h@	c #A49B49",
"i@	c #A9A04D",
"j@	c #9F9546",
"k@	c #A39843",
"l@	c #B4AB5C",
"m@	c #B1A857",
"n@	c #AEA554",
"o@	c #AA9F4E",
"p@	c #ABA24F",
"q@	c #B2A85A",
"r@	c #A39A48",
"s@	c #ADA454",
"t@	c #B5AB5C",
"u@	c #B3AA5B",
"v@	c #B5AB5D",
"w@	c #B8AE5F",
"x@	c #B6AD5D",
"y@	c #B5AC5D",
"z@	c #A79E4A",
"A@	c #B1A757",
"B@	c #AAA04E",
"C@	c #A59C47",
"D@	c #B5AB5B",
"E@	c #B4AB5B",
"F@	c #B0A655",
"G@	c #B3A957",
"H@	c #A29745",
"I@	c #ABA250",
"J@	c #AFA454",
"K@	c #ABA253",
"L@	c #AAA14E",
"M@	c #B2A757",
"N@	c #B4AA5A",
"O@	c #B1A859",
"P@	c #B1A75A",
"Q@	c #AAA14F",
"R@	c #ACA150",
"S@	c #B6AC5D",
"T@	c #B7AE60",
"U@	c #ACA351",
"V@	c #B2A758",
"W@	c #B9AF60",
"X@	c #AAA04C",
"Y@	c #ACA250",
"Z@	c #B2A958",
"`@	c #ABA14E",
" #	c #AFA553",
".#	c #B6AD5C",
"+#	c #AEA451",
"@#	c #B0A754",
"##	c #AFA654",
"$#	c #B4AA58",
"%#	c #B3A958",
"&#	c #AEA351",
"*#	c #B2A959",
"=#	c #A9A04E",
"-#	c #A99F4C",
";#	c #B0A554",
">#	c #B4AA5E",
",#	c #A89F4B",
"'#	c #B0A756",
")#	c #B2A956",
"!#	c #AEA552",
"~#	c #B2A857",
"{#	c #A69C47",
"]#	c #ACA350",
"^#	c #AEA457",
"/#	c #9F9440",
"(#	c #B3A85A",
"_#	c #B1A85A",
":#	c #B1A756",
"<#	c #ACA352",
"[#	c #AEA556",
"}#	c #ABA14D",
"|#	c #A79C48",
"1#	c #A9A04C",
"2#	c #A79C4A",
"3#	c #B1A755",
"4#	c #B5AB59",
"5#	c #B3A956",
"6#	c #ACA24F",
"7#	c #9C923C",
"8#	c #9D913B",
"9#	c #A29742",
"0#	c #9C9340",
"a#	c #B3A85B",
"b#	c #9E9440",
"c#	c #9E943E",
"d#	c #B2A95B",
"e#	c #B2A85B",
"f#	c #A09744",
"g#	c #A09542",
"h#	c #A19843",
"i#	c #B6AB5C",
"j#	c #B7AE5D",
"k#	c #A69C48",
"l#	c #A09640",
"m#	c #A29943",
"n#	c #B6AC5C",
"o#	c #B4AB5A",
"p#	c #A09741",
"q#	c #A19644",
"r#	c #9F9640",
"s#	c #A29945",
"t#	c #B1A856",
"u#	c #B4AA56",
"v#	c #ACA34F",
"w#	c #9F943F",
"x#	c #9A8F39",
"y#	c #A09742",
"z#	c #B4A95B",
"A#	c #B1A659",
"B#	c #A49B48",
"C#	c #B7AD5E",
"D#	c #B5AC5B",
"E#	c #A39A45",
"F#	c #A69D48",
"G#	c #B4AA57",
"H#	c #B7AD59",
"I#	c #AEA452",
"J#	c #A49B44",
"K#	c #A09540",
"L#	c #B5AC5C",
"M#	c #A99F4B",
"N#	c #A89E4A",
"O#	c #ACA255",
"P#	c #B2A75C",
"Q#	c #B2A759",
"R#	c #B5AA5B",
"S#	c #B3AA5A",
"T#	c #AAA14D",
"U#	c #B5AC5A",
"V#	c #A69D49",
"W#	c #A79D48",
"X#	c #AFA456",
"Y#	c #A19846",
"Z#	c #B3AA59",
"`#	c #ABA04F",
" $	c #B6AC5B",
".$	c #A79E49",
"+$	c #A49944",
"@$	c #B1A65A",
"#$	c #B1A558",
"$$	c #ADA451",
"%$	c #ADA452",
"&$	c #A89D48",
"*$	c #B2A755",
"=$	c #AFA457",
"-$	c #A79C49",
";$	c #AEA352",
">$	c #AFA453",
",$	c #B4AA59",
"'$	c #9B9139",
")$	c #9F953E",
"!$	c #9D933C",
"~$	c #9F9540",
"{$	c #9B9138",
"]$	c #9E943D",
"^$	c #A89D4A",
"/$	c #9E943C",
"($	c #B0A555",
"_$	c #A1963F",
":$	c #9C9137",
"<$	c #A29741",
"[$	c #A39943",
"}$	c #A49945",
"|$	c #A19640",
"1$	c #A19842",
"2$	c #AAA14C",
"3$	c #A99F4A",
"4$	c #A49A45",
"5$	c #A69E4A",
"6$	c #A89E49",
"7$	c #A89E48",
"8$	c #B0A553",
"9$	c #A49B46",
"0$	c #A39845",
"a$	c #A59A46",
"b$	c #B6AD5E",
"c$	c #A89D49",
"d$	c #A69C46",
"e$	c #ABA24E",
"f$	c #ADA44F",
"g$	c #A99F49",
"h$	c #AFA653",
"i$	c #B2A855",
"j$	c #A69D47",
"k$	c #B2A856",
"l$	c #B5AC58",
"m$	c #B3AA58",
"n$	c #B4A959",
"o$	c #AFA552",
"p$	c #B4AB58",
"q$	c #B5AB5A",
"r$	c #B7AD5A",
"s$	c #B0A653",
"t$	c #AAA14B",
"u$	c #A59C4B",
"v$	c #A99E4B",
"w$	c #B4A958",
"x$	c #B2A957",
"y$	c #B0A753",
"z$	c #A49943",
"A$	c #A59A45",
"B$	c #ABA14C",
"C$	c #A59C46",
"D$	c #AFA655",
"E$	c #A89F49",
"F$	c #A69B45",
"G$	c #9B9039",
"H$	c #B4AB59",
"I$	c #9E933D",
"J$	c #9B913A",
"K$	c #9E933F",
"L$	c #A1973F",
"M$	c #9D933B",
"N$	c #A29841",
"O$	c #998F3A",
"P$	c #978B35",
"Q$	c #A39A47",
"R$	c #B2A756",
"S$	c #B3A856",
"T$	c #A59B45",
"U$	c #B1A655",
"V$	c #A99E4A",
"W$	c #B0A755",
"X$	c #ADA250",
"Y$	c #B1A654",
"Z$	c #B3A857",
"`$	c #9E933C",
" %	c #A19641",
".%	c #9C923B",
"+%	c #AEA555",
"@%	c #A19744",
"#%	c #9C923D",
"$%	c #A79D47",
"%%	c #9F943E",
"&%	c #A0953F",
"*%	c #A49946",
"=%	c #A09743",
"-%	c #B4A856",
";%	c #A89D47",
">%	c #A49842",
",%	c #ABA04D",
"'%	c #A09647",
")%	c #A29949",
"!%	c #A69B4C",
"~%	c #B2A655",
"{%	c #A79C47",
"]%	c #A69A44",
"^%	c #AB9F4B",
"/%	c #A49844",
"(%	c #B4A957",
"_%	c #ADA453",
":%	c #ACA24E",
"<%	c #A09546",
"[%	c #A69B47",
"}%	c #B2A553",
"|%	c #AEA553",
"1%	c #AEA34F",
"2%	c #B3A859",
"3%	c #B3A655",
"4%	c #B7AA57",
"5%	c #B0A652",
"6%	c #988D39",
"7%	c #968B38",
"8%	c #9B903B",
"9%	c #8E8332",
"0%	c #9B8F3B",
"a%	c #9D933F",
"b%	c #9C913D",
"c%	c #9F9443",
"d%	c #A29947",
"e%	c #A19745",
"f%	c #B1A658",
"g%	c #9C923E",
"h%	c #B4A95A",
"i%	c #9A8F3B",
"j%	c #A29747",
"k%	c #9A903D",
"l%	c #B1A85B",
"m%	c #AEA557",
"n%	c #A79E48",
"o%	c #B0A759",
"p%	c #A89F4A",
"q%	c #A89C4D",
"r%	c #A49948",
"s%	c #A9A051",
"t%	c #A4994B",
"u%	c #A89D4F",
"v%	c #A19648",
"w%	c #9B913B",
"x%	c #988E37",
"y%	c #988E39",
"z%	c #A49A44",
"A%	c #9A8F38",
"B%	c #9F9642",
"C%	c #A09442",
"D%	c #A69C45",
"E%	c #AFA452",
"F%	c #B3AA57",
"G%	c #AB9F4E",
"H%	c #A19845",
"I%	c #AEA450",
"J%	c #ACA14F",
"K%	c #988E3A",
"L%	c #988D38",
"M%	c #998D39",
"N%	c #978C36",
"O%	c #9A8F3A",
"P%	c #998E38",
"Q%	c #918331",
"R%	c #988C39",
"S%	c #948A38",
"T%	c #9A903A",
"U%	c #9C913E",
"V%	c #9D943F",
"W%	c #9C933E",
"X%	c #998E3A",
"Y%	c #918530",
"Z%	c #9F9641",
"`%	c #9A913C",
" &	c #A99D4C",
".&	c #A29946",
"+&	c #A99F50",
"@&	c #9F9643",
"#&	c #A39746",
"$&	c #A69A48",
"%&	c #A99F51",
"&&	c #9D9341",
"*&	c #A59B4C",
"=&	c #ACA051",
"-&	c #988D37",
";&	c #958939",
">&	c #928633",
",&	c #938834",
"'&	c #ADA24F",
")&	c #958A34",
"!&	c #A89C4E",
"~&	c #9B913F",
"{&	c #968A36",
"]&	c #958A35",
"^&	c #A99D4E",
"/&	c #998F39",
"(&	c #958934",
"_&	c #9C9140",
":&	c #948833",
"<&	c #958935",
"[&	c #A69A4C",
"}&	c #A29546",
"|&	c #A89C4B",
"1&	c #9D9141",
"2&	c #958A38",
"3&	c #A4984A",
"4&	c #9E9444",
"5&	c #968B37",
"6&	c #9B913C",
"7&	c #ADA152",
"8&	c #AB9F4F",
"9&	c #9E9240",
"0&	c #9A9041",
"a&	c #A3994A",
"b&	c #9C903B",
"c&	c #A99D4D",
"d&	c #A59849",
"e&	c #9E9541",
"f&	c #9E9342",
"g&	c #9C903F",
"h&	c #9C913F",
"i&	c #9E9443",
"j&	c #A79C4F",
"k&	c #A59949",
"l&	c #A2964A",
"m&	c #A79B4C",
"n&	c #998F3D",
"o&	c #A5984A",
"p&	c #9F9246",
"  . + @ # $ % & * = - ; > , ' ) ! ~ ; { ] ^ / ( _ : < [ } | : 1 2 3 - 4 5 6 7 8 9 0 a a b c d e f g h i j k l ' m n o p q r s t ",
"u v [ w x ) y z A B - C D E F G A H I J K L M N O P Q a R m S G F T U V W X N Y M W Z `  ...+.@.#.R $.%.&.$ *.=.-.K ;.>.= * ,.'.",
"F ).!.!.~.{.].^./.(.J - 3 _.E ) F :.<.4 ~ m [.}._.|.1.2.D 3.4.5.3.|.6.U :.7.^.{.8.9.0.a.b.4.c.d.e.<.I a f.g.h.5.i.j.{ k.g l.d m.",
"n.o.p.q.:.r.s._.5.(.t.u.v.^.w.2 5 ).x.y.z.A.B.# # C.D.E.F.G.H.I.J.~.1.a K.L.M.K.N.O.P.!.O.Q.R.S.T.U.J 4 V.W.% X.5 Y.Z.`.r. +% 7.",
".+++@+1.z.r.#+T -.(.4 4 $+_.!.C.-.).%+!.D R.&+*+$+< w =+-+G.+ ;+>+,+'+)+$+# !+~+{+]+^+=+K./+(+_+:+~+,+^+R.<+[+<.I.h }+|+H.K.@+1+",
"2+o.@+E.C.3+a a 4+9.E.x.5+5 (+6+G.C.7+@+8+9+6+[+2+,+D.7+0+v 4 x.R.a+7+[+_+|.b+@+c+%+d+e+2+9+f+e+{+%+I g+D D g+w G.h+f+,+i+U.@+f+",
"j+0+F.2+C.9.k+4 K.z.H :.a+-+6.@+l+m+n+D a+:.7+o+2+|.M.# p+).1.- l+%+q+U.r+s+- t+-+;+u+v+w+-+x+e+y+U.9+y+n+z+A+B+C+|.D+W D P i + ",
"2+I.E+F+G+).H+@+D {.I+J+K+L+M+N+O+G.>+P+B.s+Q+7+a+R+S+T+2+v+U+x+# G+P+V+y+x+W+X+J.$+J+Y+D+Z+`+=+ @.@3.+@4+@@#@d+$@%@&@*@=@-@g+(+",
"D {+-+4+;@>@|+#@O.W.R+O+,@'@)@!@q+{+G+8+P+#+7+~@z.S.{@# H.]@!@N+# T.4+u+$+D.^@!@_+/@(@L+{+-@_@)@O.:@<@G+[@}@`+@+# |@1@v.2@]@3@4 ",
"4@D H.8+8+).)@M+9+: K.5@5 ;+1.P.6@7@i+W.~ #+8@9@D P q+<.D %+0@a@b@~.l+l+w+;+c@d@e@D 4+<@2+f@)@g@h@z+i@S+8+]@_@#@# j@/+-+k@(+l@m@",
"D l+v+n@c+o@l@M+(@r.x+;+l+p@7+q@r@w+s@i 2+).t@u@D O+6+g+D :.v@w@2+u+d@D.l+&+x@y@z@c+A@B@C@&+D@E@K+G+F@a+2+-@_@G@O+H@g+I@2+(+F@J@",
"u+[ @@`+0+C._@)@8+z+K@F@_+L@M@N@B@i@O@P@Q@g+!@d@n+R@J@u@D.]@S@T@L+U@)@V@p+'+W@d@X@Y@Z@`+`@ #.#.#i@+#@###I@(+$#%#m+;+F@'+X@&#*#!.",
"u+J { M+C.m+7+t+{@~.w P.=#-#;#V@B@p+u@>#~.@@@+#@8+!.q@q@b+g+#@`+-#%+q@)@=#Y@Z@*#,#g+d@v@`@-@U@'#w+##%#)#e@!#'+*#B@x.`+~#{#]#t+U+",
"q+s+^#U+@@. /#W.q+9.(#Q+8+.+V+y+O+~.!@_#D.:..@O+2+(+:#!.t+<#|@2+c+[#v@d@}#p+,@_+|#]@x@_@]#1#e.2#y+3#4#5#6#p@7#O+4+!.m@~#{#`@8#H@",
"/@).P@8@I@9#+@G.0#~.(#a#Q@[@b#I.c##+d#e#C.f#.@g#h#t+`+&+]#G.S+I.N.~@i#j#6#k#l#G+m#N+n#o#-#p#q#r#s#t#$#u#v#H.,@w#[@[+%#%#0+N.P+x#",
"S+|.|+q@]@{+S+8+y##+z#9@Q@9#P+3+=@]+^@A#<  @K.5 B#[#Q+O@(+,@c+9+[@n@C#n#-@:+k#C.,@*#S@D#U@E#G+K.F#Z@G#H#I#J#.@K#I.[+)@L#M#H@N#{@",
"<@o@O#P#3 q+C.]+5 @@|+~@v [@Z+a+0+B@1.Q#;+w+(+D.z.x+U+M+< 2#U@Y@z@-@t@E@m+0+F@;+M#:#R#S#T#}#&+4@=@~#U#o#I@V#@#8+w+=+x._@W#,#]@w+",
"c+'@X#x+q+$+@+w Y#D.1.M+H # d##@b@D.#@`+C.:.7+6+$+U #@@+'@z@N+_@V###d@Z#O+`#l@~@{#-@o#o#8+B@M+x+l+I#Z#E@0+i@ $:#.$y.W+o++$O+d@e+",
"-#C.[+#@v . X#6+# Z+A#M+;+a+x.!@:.Z+M+@$,+`#6+#$2+g+e+V@$$L@%#N@0+(+g@3@8+%$_@D#&$(+t@D@`@]@X##@N#&+F@S#p+X@*$D#0+:#Q+`+_+r+_@A@",
"m+Y@# . Z+a+^+=$q+B@l+z.C.B@a#)@a+B@F.~.<.x ^#X#k#C.5 # ]#Z+S@_@-$e+O+;+%+g+v@_@N#;$. ;+p+>$~@U+y+%+F#L+B@o@:#,$C@g+y+o@B@@@6+!.",
"z.G+'$)$5+;+#@|+H {+!$c#H > (#a#a+c+l#~$n.#+X#2.9+.+{$]$$@&+N+6+^$2+/$)$8+($d@t@^$+$_$Y+k#&+S#)@s#[@&@F+y+R@ #G@c+9#:$<$=@-@X#|+",
"a+[@l+l+N.C.o+($:.V+V+y+[$_+)@`+Z+I.y+O+}$%+U+U+O+|$c+:.$+]@g@N+D 1$k#N#|#F@t@t@2$2@m+3$K+e+N+M+b@|$K.4$5$ #G@%#`@,@-$6$7$8$!.w ",
"u+O+9$S+0+`@N+Q+O+4+ @.+0$B@:#[+u+u+8+a$C.;+`+6+e@. n+c+C.]@D@_@. O+B@O+0+3#b$S@c$z.6$d$-#t+d@Q+c+w+z@V+e$f$o#Z#.$$@C@6#g$+#A@[+",
"<@4+t+(+C@T#)@#@O+G.e+(+=@_+'+Z#j+W#t+x.G+Y@_@A@k#O+[+:#M#h$n#u@z@e@'+!#I.t#v@d@6$4$i$$$=@m@N@A@4$j$k$-@e@!#l$m$I.[@I#6#J#`@_@N+",
":.8+e+&+p+Y@_@A@O+6@#@F@_+=#k$n$^$*+e+M+I@J@D@~#O+M#o$[+-@8$n#d@0+6#~#p$Y@'+L#,$2$m+`+3@_+ #q$Z@B#f@t#3#f@f$r$5#1#$$!.s$t$-@S##@",
"u$9.V@t+8+B@~##@2+a+A#A@_+-#~#:#m+_+Z@N+B@;+[+m@l+v$J@N+L@Y@Z#_@M#@ `+w$W#f@$#,$C@R@n$N@O+-@:#'#$+t#x$%#O+y$)#p$k#I##@:#z$6#3#A@",
"O.Z+Q#7+p@a++$9#4$C.)@N+v+_+z$> v$I@)@)@R@B@,@r+J.Y@:#u@p+Y@A$v$N#n@S#~#B$0+=@B$W#%$N+A@Q@m+G.=#C$D$Z#t#`@e$1$2$E$[+`+o+F$T#G$-+",
"S+:.N+A@`@c+c#]$S+%+a#H$8+/#I$|$T+-@N@q@%+S.*@J+/@>$k$)@g+[@J$N.,@6.S@`+O+;@c#}$/$;+d@e+p+0$K$L$r#F@_@A@=#,@M$N$z$&+m@'+N#G.O$P$",
"2@x+)@M+p+D+k#J.,@]@)@d@=#{.7.m+D+]@N+a#@@W.-+> 4$e+_@d#]@,@j+. e@e+q@d@B@V+-$S+N.(+N@*#p+/@> $+I.'+~#d@< -._+6$G.&+A@Z@N#S.9+{.",
"$@,+o+N+Z+:.. O+k#-@:#A@8+k#u+}$2#]@6+o+[ -#c+w+w+$$A@)@I@L+O+e@# &+`+3@Y@y+_+Q@k#I#%#%#L@y+a$4+l+g+ #Z#;+G+Q$N#-#&+R$)+8+D y+k#",
"s#C.#@`+-#J.D.g+S.D.M@'+O+.@n@D$c+e+M+M@. 2+`+v+h#e+g+`+M#&$~#-@=@[+N@`+e@3$M@p+=@'+S$m$W#W#)+i@9$e+-@F@1#l+'+p+T$>$%#i$,@V#A@m+",
"D %+@+; -#h ^+o+H s+`+I#`@v$f+V@2+R@N+`+B@_+; x.}$C.< '#p@-#[+_@2+&+t@U$V$r+:#$#{#Y@~#A@5@R@o+W$C@&#k$&+m+}#A@`+z@&+M@M@{#a+~#7+",
"z.z.x+e+a+[ X#- ~ ,+#+#@m+B@o+)@p+a+x.P.Z+[ 7+; O+h o@D.p+r+#@[+N#g+; :#'@X$M@Y$W#;+Z+_@m+R@o+m@O+Z+`@D$]@R@g@3@1#D.g+6+2+w 7+U+",
"6@} 7#|@2#@@H+@+9+z+/#2@v `#d@_@z.:.2@9#. ;+^+t+:.} !$b#C.Z+@+3@=@k#9#4$m+(+_@Z$I.2#J+2@X@0+_@_@K+2+`$ %C.@+v@S#2+q+.%.+O++%~@7+",
";+D+|@>+V+@@g@`+:.@%c#.@|@p+`+G@_+>+F e.N.Z+M+U+:.V+K$S.H.D.A@Z#N#J+#%>+[$;+V@Z$$%%%F#2@;@h$G@D#<+K#~$&%y+@+D@N@L+S+S+2@I.)+N+x$",
"n+l+H.D+A$R@_@#@3+-.S+{.:+Y@v@Z#=#h#*%l+l+U@D@)+w+=%D E k#6#]@A@e@.+u+W#c+ #n$-%;%P+>%_+F#h$q$,$F#2+4$W#6$]@D@~#N#_.L+-+d$-@3@,$",
"O+O+4@0+2+,%R$F@R '%)._+# *+3@G@N#O+@@v.9+%$%#,$-$. a+a+)%!%;+~#z@<@}@O+e@]@w$~%{%]%^%/%J.I#(%k$<+V#_%# _+I#R$*$<+5.U@L+k#:%G#G#",
"$@N#F@W$M#R@z#6+<%&.a o+k#p+`+R$_+_+&#I#-+-$S$$#[%B@(+R@u+f.3#(%e@=#=+k$# (+w$4#6$*+Y$}%j$'+,$m$M#B@3#D$-#|%_@$#O+# I#+#c+`@H$1%",
"i+:.A@#@_+o@7+1.M.9.X#&+,#6#~#n$^$_+;$]@-#O+%#F@|#R@< ]@e@a+2%N@2+(+~#x$6$`@3@_@F#'@3%4%g$5%%#S#K+]#3###M#$$o#k$=@p+3#(+d$:%_@~#",
"$@|.P@U+B@h H ).H.U.z#!@z.M#N#B@N#1+@+&+3+B@-#B@2+]@($N+-#).8+<#2+-@_@3#0+i@8+;+e@Z+Z@3#M#6#_+K@H.|%2%Z@C.p+L@f@<@,+)+($W#%$5 D.",
"4+~.Q#M+Z+n.8._.@%).N+)@<#l+|@>+S.C.U+N+I H.6%$+R.g+; !.D.J.S g#_.D.(#)@p+l+K#{+N$o@`+)+'@[@7%S+f#(+V@A@z.M.8%5 G.i o+t+k#5 9%0%",
"a%9.o+Q#U.P+K$^.#%,+N+`+0+K#V+K.b#< X+A#a+b%c%d%e%x.t+7+D w#b#{+^.x+(#f%^$g%v.A$l#@ h%2%. i%M.S+@%:#[+N+r+8%5 {+f#- Q#!.N#g%j%k%",
"5 U.M+l%Z+h@y+-+r.~.!.[+z@B#H.$+:+%+o+O@`#. Q$Q$5 ; 6.y.B@. <@K.<@e+N+M+^$4+[@# =@&#[+7+_+K.,@z.C@;+:#Q+C.u+I.l+G+g+6+U+l+d%9#z+",
"[@9.1.M+a+G+]@3+{+%+I e+^$y+D.8+G+I@P._@:.c+e+5  @g+m%U+C.l+ #Q@[@&+!+d+. # [+z.n%;+&+|+D 2+-@B#H.s@t+o%).p%D$O+4$@@t+; y+0$|%O+",
"F.C.x.[+3 D ^+t+5+%+e+U :.D s+#@4+I@+%7+3+z+g+N+5+q%x+E.:.. h ~#c+s@P.@+r%<.t+)@{#Z+- 6+4+C.D.(+G.; ; g+m+p+g+S#2+h e+I [@C.'#3#",
"s%[ e+H+3+O.^+!.-+T w x.m+y+x 1.a+a+6+- < 3 w @+9+t%u%!%B@z.C.[+y+;+X# #. h w A@_+U.6.w z.<.4 I c++ + I %+a+w A@O+#+[+x.y+n.:#`+",
"D . q#e%a+O.Y.^+l+m+g#^.> y+w 6.H z.b@[@C.~+I X#B.v%4.! V#4@t+)@K+a+2@l+2+Z+4 g+5 z.%%J.H.a+o@Z+[@> l#R.m+O.@+o+b@6@w%# 2+r%=+&+",
"} b%x%M$S+<.p x -+F +@8.w#J.f%P@. ~$F+7#0$4@w t+y+:@y%O$P+F.@+)@H.~$]$/$z%Y@#@!.4+4.`$*@[$r+;$'+=@2@l#G$G.C.@@!.e@V+A%G$l#> :#Z+",
"9.B%y+,@{+z.|+!.2+K#^..+w#-#o+O@).h#4+n.G+o@P.^+# C%t v.N.z.[+`+-$ %5 H.[@R@_@[+4$7.R.j+K+p@R$G@D%[$I.l+0$;+>$6.8+b#W.c+z%E%_@w ",
"i+<+y+[@O+> @+[+y+$+8+H.l+_+~#&+# y+D 0$:.@@!.|+2#r%~.K.D a+6+:#4+l+0+}$_+R@#@A@k#$+a+G.N#-#$#F%4$l+i@.+1+p+e+A@b@$+5 2+<@Y@_@7+",
"5 4$]@ #k#B@G%'+G+@%Y@Y@ @. 3#F@c+<@@ f+y+B@[+F@G+> @ @@H.2#F@&+c+. &+]@$+Y@%#k$[@l+&+I@G.^$*$G@m#C@%$I#K+B@e+7+H%4$`#0+1$R@@+;+",
"i+8+@+I#1#B@3#I%j+q+g+R@e@N#3#~#-#-#t+@ . *+:#[+8+m+R@%+_+8+:#(+O+z.'#&+_+m+A@U$c+^$]@-@N#> F@(+c+T#&+n@z.z.D.< $+8+w Z+2+8+(+g+",
"q+D +%&+. # Z+B@l+D (+&#G+N#`#;+O+. A@&+r.. o@e+B#< (+[+> l+C.R@H.!%@+e+# -#J%+#a$:.t+]@l+m+9.).G.B@A@t+u$(.q%,+# ~+x.< 2@<.8+1+",
"M.. + ;+-#D K%E [@v ]@&#,#.@L%w#a$_+(+e+-+4+M%3.*%o@7+7+m+5+N%/#H@@@x.!.O+# O%q#2@O.t+t+k#b@i%$+K#C.7+(+D 4+P%1 R.~+g+g+H.v.Q%m ",
"[.z.F@f+l+W.R%V+F _.+#-@c+|@:@#%S%-+[+e+# g%A y%#%Z+e+x+. K$8.T+T%@@f%t+2+3.#%6%O%;+A@+ k#/@E /.3.B@##;+D U%V%W%/@s@D.##k#c.X%Y%",
"m m+@+&+I@b#F q#g#. -@I#N#c#$+% /@2+-@[+B@S+7.g#Z%).g+!.m+W.,@a%a%B@(+F@> `%.@l+Y+p+J@@@. ~$9#/#,@p+o$t+8+/@S+[@d.; +%t+5 k%T+4.",
"Q$-+x.(+. 5 p+v.S.D `#H -+[@l+I.H.O+]@x.v G+z@R.H%T i a.u+5 B@5.{.v ;+w O+H.0+e%G. &I #+K.$+5 $+H%C.R@(+9..&_+G.$++&D.a $+.+c+G+",
"S+2#D.e+4+S+@ ;+W.<.; I y+{+'@-@G._++ ; 9+S+&#C.@&U.< %+d%K._%t+{+C.f+< ^.K.w < 2@> ,+,+e%.+I %+S.s+I I 5 5 I#;+S+#+< < /#H.;$*+",
"# r+(+I <+{#p+(+H.O.w ]@r.c+,%@ G+8+g+,+O.#&R@t+K.~.i ,+M.H@g+7+H@%+w < r./+J@Z+D+z.< [ l+$&z.D.-.<.i %+n./+< @+d%%&[ ,+.@-+J@o@",
".&y+G.[@K+# `#Y@@%4+&&-.[@[@;$;$G+y+H..+r%R+;$E.S.O.2 B.z+g %+x+H@O.E H@8 n.x a+F O+S+1 2 r%Z+C.4.M._.R+8 C+w g+e%*&[.R+@%0 =&q%",
"H.|@-&G$K$H < 5@X ;&>&,&b%G+]@'&}$E )&y%N.3+!.#+R.b%-&6%W.j%!&x m ~&{&]&_.9+[ ^&P+X%/&/.2 J.R@< 7./#(&7%h.: h + @%_&:&<&*@3+[&}&",
"l+a%|@*@I+> (.|&1&2&l.$ i%J.'&'@H..%/@^.K$H ; i K.X%[.e%-.3&u.x 4&5&..m 6&3+7&8&;@G 9&4.4.. < r+b#O%7.m 0&a&@@g+} 7%O b&T+v c&d&",
"S.e&~$ %h#/+t%(.f&X._.g&h&[@N#z.D+s#v.X%q## ,+o@S.i&C+/@d.{@j&u%% f&S.{.{.3+,+[ 9#h&$+V+}$O+B@8+7._.5.h&e%3 #+V _.h.2 E 4.k&i l&",
"1 b%. ^$J+-+(.(.-.[.9+z+c.0$(.~ {.a%-+m+d.2#@@%+5.b#= } S.w.s+(.L 4.. 5+I+8+s+m&/#K#-+5+F _+a+] :@n&!%5 W.{@u%R d.c.T H@b%o&W p&"};
